share/icons/Flat-Remix-Blue-Dark/mimetypes/scalable/text-x-lilypond.svg

<svg xmlns="http://www.w3.org/2000/svg" xmlns:xlink="http://www.w3.org/1999/xlink" width="36pt" height="36pt" version="1.1" viewBox="0 0 36 36"> <defs> <clipPath id="clip1"> <path d="M 20 2 L 31 2 L 31 13 L 20 13 Z M 20 2"/> </clipPath> <clipPath id="clip2"> <path d="M 20.515625 2.625 L 30.328125 12.4375 L 22.023438 12.4375 C 21.292969 12.4375 20.515625 11.660156 20.515625 10.929688 Z M 20.515625 2.625"/> </clipPath> <image id="image6" width="36" height="36" xlink:href="data:image/png;base64,iVBORw0KGgoAAAANSUhEUgAAACQAAAAkCAYAAADhAJiYAAAABmJLR0QA/wD/AP+gvaeTAAAAmklEQVRYhe3T0QqCQBBG4aOtYEoUvf9Lildltl00C4tkbBeTIP+BAUEYP1YW1Pcqh53B9kbgaVPcwQF0tAmGSrMZ6AKcDQXw+AUVHEAtcAUaewYYgYmC3+cBCkAPnDJQMcoDVNnebgEqQnmAclTz4d0I3P4JStc9AjXvk4qLWQV53LLeEOl05gw4A3dgcPiuUkoppZRSSqk99gLWvSJpuDnlsAAAAABJRU5ErkJggg=="/> </defs> <g> <path style="fill:rgb(90.196%,90.196%,90.196%)" d="M 7.347656 3.152344 C 6.675781 3.152344 6.042969 3.785156 6.042969 4.457031 L 6.042969 31.847656 C 6.042969 32.480469 6.714844 33.152344 7.347656 33.152344 L 28.21875 33.152344 C 28.851562 33.152344 29.523438 32.480469 29.523438 31.847656 L 29.523438 11.632812 L 21.042969 3.152344 Z M 7.347656 3.152344"/> <g clip-path="url(#clip1)"> <g clip-path="url(#clip2)"> <use xlink:href="#image6"/> </g> </g> <path style="fill:rgb(100.000%,100.000%,100.000%)" d="M 21.042969 3.152344 L 29.523438 11.632812 L 22.347656 11.632812 C 21.714844 11.632812 21.042969 10.960938 21.042969 10.328125 Z M 21.042969 3.152344"/> <path style="fill:rgb(0%,0%,0%);fill-opacity:0.352941" d="M 18.777344 15.53125 C 18.023438 15.722656 17.390625 16.414062 17.390625 16.414062 L 17.414062 16.433594 L 18.617188 20.914062 C 17.753906 20.445312 16.523438 20.5625 15.507812 21.300781 C 14.1875 22.25 13.730469 23.871094 14.492188 24.914062 C 15.257812 25.960938 16.9375 26.035156 18.253906 25.085938 C 19.289062 24.332031 19.871094 23.148438 19.660156 22.179688 C 19.652344 22.152344 19.640625 22.121094 19.632812 22.089844 L 18.480469 17.613281 C 18.507812 17.574219 18.84375 17.421875 19.9375 17.34375 C 21.089844 17.269531 21.875 15.414062 21.875 15.414062 C 21.875 15.414062 20.574219 15.914062 19.550781 15.554688 C 19.292969 15.464844 19.027344 15.46875 18.777344 15.53125 Z M 18.777344 15.53125"/> </g> </svg>

<svg width="36pt" height="36pt" version="1.1" viewBox="0 0 36 36" xmlns="http://www.w3.org/2000/svg"><defs><filter id="a" x="-.192" y="-.192" width="1.384" height="1.384" color-interpolation-filters="sRGB"><feGaussianBlur stdDeviation="0.67843748"/></filter></defs><path d="m7.3477 3.9022c-0.67188 0-1.3047 0.63281-1.3047 1.3047v27.391c0 0.63281 0.67188 1.3047 1.3047 1.3047h20.871c0.63281 0 1.3047-0.67188 1.3047-1.3047v-20.215l-8.4805-8.4805z" opacity=".3"/><path d="m7.3477 3.1523c-0.67188 0-1.3047 0.63281-1.3047 1.3047v27.391c0 0.63281 0.67188 1.3047 1.3047 1.3047h20.871c0.63281 0 1.3047-0.67188 1.3047-1.3047v-20.215l-8.4805-8.4805z" fill="#e5e5e5"/><path d="m20.668 3.5272 8.4805 8.4805h-7.1758c-0.63281 0-1.3047-0.67187-1.3047-1.3047z" filter="url(#a)" opacity=".2"/><path d="m21.043 3.1523 8.4805 8.4805h-7.1758c-0.63281 0-1.3047-0.67187-1.3047-1.3047z" fill="#fff"/><path d="m18.777 15.531c-0.75391 0.19141-1.3867 0.88281-1.3867 0.88281l0.023437 0.019532 1.2031 4.4805c-0.86328-0.46875-2.0938-0.35156-3.1094 0.38672-1.3203 0.94922-1.7773 2.5703-1.0156 3.6133 0.76562 1.0469 2.4453 1.1211 3.7617 0.17188 1.0352-0.75391 1.6172-1.9375 1.4062-2.9062-0.007812-0.027344-0.019531-0.058594-0.027344-0.089844l-1.1523-4.4766c0.027343-0.039062 0.36328-0.19141 1.457-0.26953 1.1523-0.074219 1.9375-1.9297 1.9375-1.9297s-1.3008 0.5-2.3242 0.14063c-0.25781-0.089844-0.52344-0.085938-0.77344-0.023438z" fill-opacity=".35294"/></svg>
